X: 563
T: Fisherman's Favorite
B: jims roots
M:4/4
L:1/8
R: hornpipe
Q: 1/4=100
K:Dmaj
V:1 
AF |: "D"DFAF "G"GBAG | "D"FAde fdAF | "Em"GBef gAfA | "A"(3efe (3dcB AGFE |
"D"DFAF "G"DGBG | "D"FAde fdAF | "Em"GBef gAfA | "A"(3efe dc "D"d2 :||
 cd | "A"eA (3AAA "D"fA (3AAA | "G"gAfA "A"eA (3AAA | "G"gAfA "A"eA"D"df | "A"(3efe (3dcB AGFE |
"D"DFAF "G"DGBG | "D"FAde fdAF | "Em"GBef gAfA | "A"(3efe dc "D"d2 :||
% abcbook-tune_id 6298c25dfd39e7178b3385fb


% abcbook-boost 0
% abcbook-tablature 
% abcbook-transpose 
% abcbook-lastupdated 1654178397974
% abcbook-soundfonts 
% abcbook-repeats 1


